X: 1
T: Sugar Hill
O: arr. Brad Leftwich
%D:1855
R: reel
Z: 2020 John Chambers <jc:trillian.mit.edu>
S: https://www.facebook.com/groups/Fiddletuneoftheday/
S: https://www.facebook.com/groups/Fiddletuneoftheday/photos/
S: https://www.oldtimetim.com/documents/rtcjp35.pdf
M: C|
L: 1/8
K: D
|:"D"faa2 f2e2 | "A"f2e2 "D"d4 | f2a2 fed2 | "G"B3d B4 |\
| "D"faa2 f2e2 | "A"f2e2 "D"d4 | "G"d2B2 A2B2 | "D"d3d d2 :|
|:"D"AB2A d4 | "A"f2e2 "D"d4 | ef2f fed2 | "G"B3d B4 |\
| "D"AB2A d4 | "A"f2e2 "D"d4 | "G"d2B2 "A"A2F2 | "D"D3D D4 :|
